!!!!SEGMENT: pl-sa--l-1636--067_anonim--preambulum.krn
!!!cenid: 17xx:774
!!!COM: Anonim
!!!COM-rismid: pe30004985
!!!CDT:
!!!CNT:
!!!OTL: Preambulum
!!!PDT:
!!!AGN: Secular; Prelude
!!!SMS-siglum: PL-SA
!!!SMS-shelfmark: L 1636
!!!SMS-shelfwork: 067 W
!!!SMS-variant:
!!!SMS-altvar:
!!!NIFC-rismid: 1001076872
!!!URL-scan: http://repozytorium.nifc.pl/skany/pl-sa-nut--l1636
!!!ONB-nifc: 20r, skan 0023, s. 7-8
!!!key:
**kern	**fba	**kern
*part1	*	*part1
*staff2	*	*staff1
*Iempty	*	*Iempty
*I"	*	*I"
*clefF4	*	*clefC1
*k[]	*	*k[]
*G:	*	*G:
*M2/2	*	*M2/2
*met(c|)	*	*met(c|)
=1	=1	=1
*all\right	*	*all\right
!LO:TX:b:t=Perambulum	!	!
1G 1D 1AA 1FF	.	1dd 1b 1g
=2-	=2-	=2-
*^	*	*^
*	*2\right	*	*	*2\right
2D/	2DD/	.	2dd 2a/	2f#X\
2G/	2D 2GG\	.	2dd 2b/	2g\
*v	*v	*	*	*
*	*	*v	*v
=3	=3	=3
4C/	.	1cc 1g 1e
4D/	.	.
4E\	.	.
4F#X\	.	.
=4	=4	=4
4G\	.	1b 1g
4GG/	.	.
4BB/	.	.
4C/	.	.
=5	=5	=5
*	*	*^
1D 1AA 1DD	.	1a	2g\
.	.	.	2f#X\
=6	=6	=6	=6
1G 1D 1GG	.	2b/	2g\
.	.	2dd/	2b\
=7	=7	=7	=7
2FF/	.	4cc/	4a\
.	.	4dd/	4b\
2EE/	6	2ee/	2cc\
=8-	=8-	=8-	=8-
2FF/	6 5	1dd	2cc\
2GG/	.	.	2b\
=9	=9	=9	=9
2C/	.	4cc/	4ryy
.	.	4ee/	4cc\
2D/	6	4dd/	4b\
.	5	4cc/	4a\
!!LO:LB:g=original
=10	=10	=10	=10
2E\	#	2b/	2g#X\
2C/	6	2cc/	2a\
=11	=11	=11	=11
2D\	6 5	1b	2a\
2E\	4	.	2g#X\
.	3	.	.
=12	=12	=12	=12
*^	*	*	*
[1A	2.AA\	.	4a/	4ryy
.	.	.	4b/	4ryy
.	.	.	[2cc/	[2e\
.	4BB\	.	.	.
=13	=13	=13	=13	=13
(2A/]	2C\	.	2cc/]	4e\]
.	.	.	.	4f#X\
2G/)	2GG\	.	2b/	2g\
=14	=14	=14	=14	=14
*	*	*	*	*^
1D 1AA	1DD	.	1a	4g\	2ryy
.	.	.	.	8f#X\L	.
.	.	.	.	8e\J	.
.	.	.	.	4d\	2f#/
.	.	.	.	8c\	.
.	.	.	.	8ryy	.
*v	*v	*	*	*	*
*	*	*v	*v	*v
=15	=15	=15
!LO:TX:a:t=P:problem:ostatni takt bardzo ozdobny	!	!LO:TX:a:t=P:problem:ostatni takt bardzo ozdobny
0G 0D 0GG;	.	0g 0d 0G;
==	==	==
*-	*-	*-
!!!system-decoration: s1,s2
!!!AIN: 1 empty
!!!ENC: Marta Lawrence
!!!END: 2020-12-08
!!!ENC: Tomasz Grochalski
!!!END: 2020-06-12
